X:777
T:Rock and the Wee Pickle Tow, The
T:Montrose's March
S:Seonaid Lynn, Edinburgh, 1998
Z:Nigel Gatherer
M:6/8
L:1/8
K:A
E | EFG ABc | eac B2e | cAB cdB | cAA A2
F | EFG ABc | eac B2e | cAB cdB | cAA A2 :|
a | f2a f2a | f2a fec | efe efg | aed cBA |
    dcd efg | aec B2e | cAB cdB | cAA A2 
a | fga fga | fga fec | efe efg | aed cBA |
    dcd efg | aec B2e | cAB cdB | cAA A2 |]
<end>
<start>
